X:17116
T:The Poppy Jig
R:jig
M:6/8
L:1/8
K:C
A/B/|c2G E2A|G2E C3|B,CD G,A,B,|C2A G2A/B/|
c2G E2A|G2E C3|B,CD G,A,B,|C3 C2:|
K:G
B,/C/|D2G B2G|E2G c2A|F2d d^cd|edB G2B,/C/|
D2G B2G|E2G c2A|F2A DEF|G3 G2:|
